coreui/free/cil-user.svg

<svg xmlns="http://www.w3.org/2000/svg" viewBox="0 0 512 512">
  <path fill="var(--ci-primary-color, currentColor)" d="M411.6,343.656l-72.823-47.334,27.455-50.334A80.23,80.23,0,0,0,376,207.681V128a112,112,0,0,0-224,0v79.681a80.236,80.236,0,0,0,9.768,38.308l27.455,50.333L116.4,343.656A79.725,79.725,0,0,0,80,410.732V496H448V410.732A79.727,79.727,0,0,0,411.6,343.656ZM416,464H112V410.732a47.836,47.836,0,0,1,21.841-40.246l97.66-63.479-41.64-76.341A48.146,48.146,0,0,1,184,207.681V128a80,80,0,0,1,160,0v79.681a48.146,48.146,0,0,1-5.861,22.985L296.5,307.007l97.662,63.479h0A47.836,47.836,0,0,1,416,410.732Z" class="ci-primary"/>
</svg>

<svg viewBox="0 0 512 512" xmlns="http://www.w3.org/2000/svg"><path d="M411.6 343.656l-72.83-47.334 27.45-50.334h-.001c6.4-11.76 9.75-24.93 9.76-38.31v-79.69 0c0-61.86-50.15-112-112-112 -61.86 0-112 50.14-112 112v79.681 -.001c0 13.38 3.36 26.55 9.76 38.3l27.45 50.33 -72.83 47.334 -.001-.001c-22.75 14.72-36.46 39.98-36.4 67.07v85.26h368v-85.27 0c.05-27.1-13.66-52.36-36.4-67.08ZM416 464H112v-53.27 0c-.04-16.26 8.19-31.42 21.84-40.25L231.5 307l-41.64-76.35v0c-3.84-7.06-5.86-14.96-5.87-22.99v-79.69 0c0-44.19 35.81-80 80-80 44.18 0 80 35.81 80 80v79.681 0c-.01 8.03-2.03 15.93-5.87 22.98l-41.64 76.34 97.66 63.47v0 0c13.64 8.83 21.86 23.99 21.83 40.24Z"/></svg>
